static/img/in-field/lists-pressed.svg

<svg fill="none" height="57" viewBox="0 0 511 57" width="511" xmlns="http://www.w3.org/2000/svg" xmlns:xlink="http://www.w3.org/1999/xlink"><mask id="a" fill="#fff"><path d="m.5.199951h510v56.000049h-510z" fill="#fff"/></mask><path d="m.5.199951h510v56.000049h-510z" fill="#217cbb"/><path d="m18.6484 37.2v-15.7051h1.8262v14.0722h6.9717v1.6329zm13.2588-11.7735v11.7735h-1.7832v-11.7735zm-.8701-4.4043c.2936 0 .5443.0967.752.2901.2148.1862.3222.4798.3222.8808 0 .3939-.1074.6875-.3222.8809-.2077.1933-.4584.29-.752.29-.3079 0-.5657-.0967-.7734-.29-.2005-.1934-.3008-.487-.3008-.8809 0-.401.1003-.6946.3008-.8808.2077-.1934.4655-.2901.7734-.2901zm12.5176 12.9551c0 .7519-.1898 1.3857-.5693 1.9014-.3724.5084-.9096.8916-1.6114 1.1494-.6946.2578-1.5254.3867-2.4922.3867-.8235 0-1.5361-.0645-2.1377-.1934-.6015-.1289-1.1279-.3115-1.5791-.5478v-1.6436c.4799.2364 1.0528.4512 1.7188.6446.666.1933 1.3463.29 2.041.29 1.0169 0 1.7546-.1647 2.2129-.4941.4583-.3295.6875-.7771.6875-1.3428 0-.3223-.0931-.6052-.2793-.8486-.179-.2507-.4834-.4906-.9131-.7198-.4297-.2363-1.0241-.4941-1.7832-.7734-.7519-.2865-1.4036-.5693-1.9551-.8486-.5442-.2865-.9668-.6338-1.2675-1.042-.2937-.4082-.4405-.9382-.4405-1.5899 0-.9954.4011-1.7581 1.2031-2.2881.8093-.5371 1.8692-.8056 3.1797-.8056.709 0 1.3715.0716 1.9873.2148.6231.1361 1.2032.3223 1.7403.5586l-.6016 1.4287c-.487-.2077-1.0062-.3831-1.5576-.5263-.5514-.1433-1.1136-.2149-1.6865-.2149-.8236 0-1.4574.1361-1.9014.4082-.4368.2721-.6553.6445-.6553 1.1172 0 .3652.1003.666.3008.9023.2077.2364.5371.4584.9883.6661.4512.2076 1.0456.4511 1.7832.7304.7376.2722 1.375.555 1.9121.8487.5371.2864.9489.6373 1.2354 1.0527.2936.4082.4404.9346.4404 1.5791zm6.9209 1.9766c.2936 0 .5944-.0251.9023-.0752.308-.0502.5586-.111.752-.1827v1.3858c-.2077.0931-.4977.1719-.8701.2363-.3653.0645-.7233.0967-1.0743.0967-.623 0-1.1888-.1074-1.6972-.3223-.5085-.222-.9167-.5944-1.2246-1.1172-.3008-.5227-.4512-1.2461-.4512-2.1699v-6.9824h-1.6758v-.8701l1.6865-.6983.709-2.5566h1.0742v2.7285h3.4483v1.3965h-3.4483v6.9287c0 .7376.1683 1.2891.5049 1.6543.3438.3652.7985.5479 1.3643.5479zm10.5224 1.2461v-15.7051h1.8262v15.7051zm9.9288-1.2461c.2936 0 .5944-.0251.9023-.0752.3079-.0502.5586-.111.752-.1827v1.3858c-.2077.0931-.4978.1719-.8702.2363-.3652.0645-.7233.0967-1.0742.0967-.623 0-1.1888-.1074-1.6972-.3223-.5085-.222-.9167-.5944-1.2247-1.1172-.3007-.5227-.4511-1.2461-.4511-2.1699v-6.9824h-1.6758v-.8701l1.6865-.6983.709-2.5566h1.0742v2.7285h3.4483v1.3965h-3.4483v6.9287c0 .7376.1683 1.2891.5049 1.6543.3437.3652.7985.5479 1.3643.5479zm8.8222-10.7422c1.0026 0 1.862.222 2.5781.666.7162.444 1.264 1.067 1.6436 1.8691.3796.7949.5693 1.7259.5693 2.793v1.1064h-8.1318c.0215 1.3822.3652 2.4349 1.0313 3.1582.666.7234 1.6041 1.085 2.8144 1.085.7448 0 1.4037-.068 1.9766-.2041s1.1673-.3366 1.7832-.6016v1.5684c-.5944.265-1.1852.4583-1.7725.5801-.5801.1217-1.2676.1826-2.0625.1826-1.1315 0-2.1198-.2292-2.9648-.6875-.8379-.4655-1.4896-1.1458-1.9551-2.041s-.6983-1.9909-.6983-3.2871c0-1.2676.2113-2.3633.6338-3.2871.4297-.931 1.0313-1.6472 1.8047-2.1485.7806-.5013 1.6973-.7519 2.75-.7519zm-.0215 1.4609c-.9524 0-1.7115.3115-2.2773.9346-.5658.623-.9023 1.4931-1.0098 2.6103h6.2305c-.0072-.7018-.1182-1.3177-.333-1.8476-.2077-.5371-.5264-.9525-.9561-1.2461-.4297-.3008-.9811-.4512-1.6543-.4512zm20.8755-1.4609c1.296 0 2.273.3401 2.932 1.0205.659.6732.988 1.7581.988 3.2549v7.7129h-1.761v-7.627c0-.9525-.208-1.665-.623-2.1377-.409-.4798-1.017-.7197-1.827-.7197-1.1382 0-1.9653.3294-2.4809.9883-.5157.6588-.7735 1.6292-.7735 2.9111v6.585h-1.7724v-7.627c0-.6374-.0931-1.1673-.2793-1.5898-.1791-.4226-.4512-.7377-.8164-.9454-.3581-.2148-.8129-.3222-1.3643-.3222-.7806 0-1.4072.1611-1.8799.4834-.4726.3222-.8164.8021-1.0312 1.4394-.2077.6302-.3116 1.4073-.3116 2.3311v6.2305h-1.7832v-11.7735h1.4395l.2685 1.6651h.0967c.2364-.4083.5336-.752.8916-1.0313.3581-.2793.7591-.4906 1.2032-.6338.444-.1432.9166-.2148 1.4179-.2148.8952 0 1.6436.1683 2.2451.5049.6088.3294 1.0492.8343 1.3213 1.5146h.0967c.3867-.6803.9167-1.1852 1.5898-1.5146.6732-.3366 1.4109-.5049 2.2134-.5049z" fill="#fff"/><path d="m510.5 55.2h-510v2h510z" fill="#a3a6b1" mask="url(#a)"/></svg>

<svg width="511" height="57" viewBox="0 0 511 57" fill="none" xmlns="http://www.w3.org/2000/svg"><mask id="path-1-inside-1_7345_83126" fill="#fff"><path d="M0.5 0.199951H510.5V56.2H0.5V0.199951Z"/></mask><path d="M0.5 0.199951H510.5V56.2H0.5V0.199951Z" fill="#217CBB"/><path d="M18.6484 37.2V21.4949H20.4746V35.5671H27.4463V37.2H18.6484ZM31.9072 25.4265V37.2H30.124V25.4265H31.9072ZM31.0371 21.0222C31.3307 21.0222 31.5814 21.1189 31.7891 21.3123C32.0039 21.4985 32.1113 21.7921 32.1113 22.1931C32.1113 22.587 32.0039 22.8806 31.7891 23.074C31.5814 23.2673 31.3307 23.364 31.0371 23.364C30.7292 23.364 30.4714 23.2673 30.2637 23.074C30.0632 22.8806 29.9629 22.587 29.9629 22.1931C29.9629 21.7921 30.0632 21.4985 30.2637 21.3123C30.4714 21.1189 30.7292 21.0222 31.0371 21.0222ZM43.5547 33.9773C43.5547 34.7292 43.3649 35.363 42.9854 35.8787C42.613 36.3871 42.0758 36.7703 41.374 37.0281C40.6794 37.2859 39.8486 37.4148 38.8818 37.4148C38.0583 37.4148 37.3457 37.3503 36.7441 37.2214C36.1426 37.0925 35.6162 36.9099 35.165 36.6736V35.03C35.6449 35.2664 36.2178 35.4812 36.8838 35.6746C37.5498 35.8679 38.2301 35.9646 38.9248 35.9646C39.9417 35.9646 40.6794 35.7999 41.1377 35.4705C41.596 35.141 41.8252 34.6934 41.8252 34.1277C41.8252 33.8054 41.7321 33.5225 41.5459 33.2791C41.3669 33.0284 41.0625 32.7885 40.6328 32.5593C40.2031 32.323 39.6087 32.0652 38.8496 31.7859C38.0977 31.4994 37.446 31.2166 36.8945 30.9373C36.3503 30.6508 35.9277 30.3035 35.627 29.8953C35.3333 29.4871 35.1865 28.9571 35.1865 28.3054C35.1865 27.31 35.5876 26.5473 36.3896 26.0173C37.1989 25.4802 38.2588 25.2117 39.5693 25.2117C40.2783 25.2117 40.9408 25.2833 41.5566 25.4265C42.1797 25.5626 42.7598 25.7488 43.2969 25.9851L42.6953 27.4138C42.2083 27.2061 41.6891 27.0307 41.1377 26.8875C40.5863 26.7442 40.0241 26.6726 39.4512 26.6726C38.6276 26.6726 37.9938 26.8087 37.5498 27.0808C37.113 27.3529 36.8945 27.7253 36.8945 28.198C36.8945 28.5632 36.9948 28.864 37.1953 29.1003C37.403 29.3367 37.7324 29.5587 38.1836 29.7664C38.6348 29.974 39.2292 30.2175 39.9668 30.4968C40.7044 30.769 41.3418 31.0518 41.8789 31.3455C42.416 31.6319 42.8278 31.9828 43.1143 32.3982C43.4079 32.8064 43.5547 33.3328 43.5547 33.9773ZM50.4756 35.9539C50.7692 35.9539 51.07 35.9288 51.3779 35.8787C51.6859 35.8285 51.9365 35.7677 52.1299 35.696V37.0818C51.9222 37.1749 51.6322 37.2537 51.2598 37.3181C50.8945 37.3826 50.5365 37.4148 50.1855 37.4148C49.5625 37.4148 48.9967 37.3074 48.4883 37.0925C47.9798 36.8705 47.5716 36.4981 47.2637 35.9753C46.9629 35.4526 46.8125 34.7292 46.8125 33.8054V26.823H45.1367V25.9529L46.8232 25.2546L47.5322 22.698H48.6064V25.4265H52.0547V26.823H48.6064V33.7517C48.6064 34.4893 48.7747 35.0408 49.1113 35.406C49.4551 35.7712 49.9098 35.9539 50.4756 35.9539ZM60.998 37.2V21.4949H62.8242V37.2H60.998ZM70.9268 35.9539C71.2204 35.9539 71.5212 35.9288 71.8291 35.8787C72.137 35.8285 72.3877 35.7677 72.5811 35.696V37.0818C72.3734 37.1749 72.0833 37.2537 71.7109 37.3181C71.3457 37.3826 70.9876 37.4148 70.6367 37.4148C70.0137 37.4148 69.4479 37.3074 68.9395 37.0925C68.431 36.8705 68.0228 36.4981 67.7148 35.9753C67.4141 35.4526 67.2637 34.7292 67.2637 33.8054V26.823H65.5879V25.9529L67.2744 25.2546L67.9834 22.698H69.0576V25.4265H72.5059V26.823H69.0576V33.7517C69.0576 34.4893 69.2259 35.0408 69.5625 35.406C69.9062 35.7712 70.361 35.9539 70.9268 35.9539ZM79.749 25.2117C80.7516 25.2117 81.611 25.4337 82.3271 25.8777C83.0433 26.3217 83.5911 26.9447 83.9707 27.7468C84.3503 28.5417 84.54 29.4727 84.54 30.5398V31.6462H76.4082C76.4297 33.0284 76.7734 34.0811 77.4395 34.8044C78.1055 35.5278 79.0436 35.8894 80.2539 35.8894C80.9987 35.8894 81.6576 35.8214 82.2305 35.6853C82.8034 35.5492 83.3978 35.3487 84.0137 35.0837V36.6521C83.4193 36.9171 82.8285 37.1104 82.2412 37.2322C81.6611 37.3539 80.9736 37.4148 80.1787 37.4148C79.0472 37.4148 78.0589 37.1856 77.2139 36.7273C76.376 36.2618 75.7243 35.5815 75.2588 34.6863C74.7933 33.7911 74.5605 32.6954 74.5605 31.3992C74.5605 30.1316 74.7718 29.0359 75.1943 28.1121C75.624 27.1811 76.2256 26.4649 76.999 25.9636C77.7796 25.4623 78.6963 25.2117 79.749 25.2117ZM79.7275 26.6726C78.7751 26.6726 78.016 26.9841 77.4502 27.6072C76.8844 28.2302 76.5479 29.1003 76.4404 30.2175H82.6709C82.6637 29.5157 82.5527 28.8998 82.3379 28.3699C82.1302 27.8328 81.8115 27.4174 81.3818 27.1238C80.9521 26.823 80.4007 26.6726 79.7275 26.6726ZM100.603 25.2117C101.899 25.2117 102.876 25.5518 103.535 26.2322C104.194 26.9054 104.523 27.9903 104.523 29.4871V37.2H102.762V29.573C102.762 28.6205 102.554 27.908 102.139 27.4353C101.73 26.9555 101.122 26.7156 100.312 26.7156C99.1738 26.7156 98.3467 27.045 97.8311 27.7039C97.3154 28.3627 97.0576 29.3331 97.0576 30.615V37.2H95.2852V29.573C95.2852 28.9356 95.1921 28.4057 95.0059 27.9832C94.8268 27.5606 94.5547 27.2455 94.1895 27.0378C93.8314 26.823 93.3766 26.7156 92.8252 26.7156C92.0446 26.7156 91.418 26.8767 90.9453 27.199C90.4727 27.5212 90.1289 28.0011 89.9141 28.6384C89.7064 29.2686 89.6025 30.0457 89.6025 30.9695V37.2H87.8193V25.4265H89.2588L89.5273 27.0916H89.624C89.8604 26.6833 90.1576 26.3396 90.5156 26.0603C90.8737 25.781 91.2747 25.5697 91.7188 25.4265C92.1628 25.2833 92.6354 25.2117 93.1367 25.2117C94.0319 25.2117 94.7803 25.38 95.3818 25.7166C95.9906 26.046 96.431 26.5509 96.7031 27.2312H96.7998C97.1865 26.5509 97.7165 26.046 98.3896 25.7166C99.0628 25.38 99.8005 25.2117 100.603 25.2117Z" fill="#fff"/><path d="M510.5 55.2H0.5V57.2H510.5V55.2Z" fill="#A3A6B1" mask="url(#path-1-inside-1_7345_83126)"/></svg>
